X:902
T:Anglais efter Per Nilsson Dahlberg
T:(SvL Skåne nr. 185)
S:efter Per Nilsson Dahlberg
S:Svenska Låtar Skåne nr 185
B:Svenska Låtar Skåne
R:Anglais
Z:Patrik Månsson, 2009-01-03
O:Nymö, Skåne
M:2/4
L:1/16
K:F
(Ac)dc (Ac)fa | gbeg afcB | (Ac)dc (Ac)fa | (gb)eg f2 z2 |
K:Bb
|:!>!d4 (Bd)FB | cecA Bdfe | !>!d4 (Bd)FB | (ce)cA B2 z2 :|

(:musicend:)
Jfr Nils Andersson, Skånska Melodier, n:r 64 och 113. (SvL)


(:music:)
